X:8
T:Gloire  Dieu, Paix aux hommes - F156-1b
C:J. Berthier
M:C
Q:1/4=104
K:C
"Lam"A3G A4|B3A B2G2|c3c B2AG|E2D2 E4||E2DE F2E2|C2D2 E2zE|A3G E2F2|D4 C4|
E2DE F2E2|C2D2 E4|A2A2 B2GG|E4 z2G2|c3c B2G2|A4 G2GG|A2GA B4|BAG2 A4||
